assets/images/howto-bg.svg

<svg width="1600" height="1269" fill="none" xmlns="http://www.w3.org/2000/svg"><path d="M1600 .001H0V1269h1600V.001Z" fill="#D9D9D9"/><g opacity=".5"><path d="M1598.52 1273.96H918.396L1202.03.001 1598.52 0V1273.96Z" fill="#F2F2F2"/><path d="M1023 559.439h1.38L866.677 1269h-1.387L1023 559.439ZM1018.27 559.439h1.38L861.956 1269h-1.394l157.708-709.561ZM1013.54 559.439h1.39L857.228 1269h-1.394l157.706-709.561ZM1008.82 559.439h1.38L852.499 1269h-1.387l157.708-709.561ZM1004.09 559.439h1.39L847.771 1269h-1.387l157.706-709.561ZM999.361 559.439h1.399L843.049 1269h-1.394l157.706-709.561ZM994.633 559.439h1.394L838.321 1269h-1.386l157.698-709.561ZM989.912 559.439h1.387L833.593 1269h-1.387l157.706-709.561ZM985.183 559.439h1.387L828.872 1269h-1.394l157.705-709.561ZM980.455 559.439h1.394L824.143 1269h-1.394l157.706-709.561ZM975.734 559.439h1.387L819.415 1269h-1.387l157.706-709.561ZM971.006 559.439h1.386L814.687 1269H813.3l157.706-709.561ZM966.277 559.439h1.394L809.965 1269h-1.394l157.706-709.561ZM961.549 559.439h1.394L805.237 1269h-1.386l157.698-709.561ZM956.828 559.439h1.387L800.509 1269h-1.387l157.706-709.561ZM952.099 559.439h1.395L795.788 1269h-1.394l157.705-709.561ZM947.37 559.439h1.395L791.059 1269h-1.387L947.37 559.439ZM942.649 559.439h1.387L786.33 1269h-1.387l157.706-709.561ZM937.921 559.439h1.386L781.609 1269h-1.394l157.706-709.561ZM933.193 559.439h1.394L776.882 1269h-1.395l157.706-709.561ZM928.471 559.439h1.387L772.152 1269h-1.386l157.705-709.561ZM923.743 559.439h1.387L767.424 1269h-1.387l157.706-709.561ZM919.014 559.439h1.395L762.703 1269h-1.394l157.705-709.561ZM914.286 559.439h1.394L757.975 1269h-1.387l157.698-709.561ZM909.565 559.439h1.387L753.246 1269h-1.387l157.706-709.561ZM904.837 559.439h1.387L748.525 1269h-1.394l157.706-709.561ZM900.108 559.439h1.394L743.797 1269h-1.395l157.706-709.561ZM895.388 559.439h1.386L739.068 1269h-1.386l157.706-709.561ZM890.659 559.439h1.387L734.344 1269h-1.39l157.705-709.561ZM885.93 559.439h1.395L729.617 1269h-1.389L885.93 559.439ZM1180.86-150.125h1.38l-157.7 709.563h-1.39l157.71-709.563ZM1176.13-150.125h1.39l-157.7 709.563h-1.4l157.71-709.563ZM1171.4-150.125h1.39l-157.7 709.563h-1.4l157.71-709.563ZM1166.68-150.125h1.39l-157.71 709.563h-1.39l157.71-709.563ZM1161.95-150.125h1.39l-157.71 709.563h-1.38l157.7-709.563ZM1157.22-150.125h1.4l-157.71 709.563h-1.393l157.703-709.563ZM1152.49-150.125h1.4L996.182 559.438h-1.387l157.695-709.563ZM1147.77-150.125h1.39L991.453 559.438h-1.387l157.704-709.563ZM1143.04-150.125h1.39L986.732 559.438h-1.394l157.702-709.563ZM1138.32-150.125h1.39L982.004 559.438h-1.395l157.711-709.563ZM1133.59-150.125h1.39L977.275 559.438h-1.386l157.701-709.563ZM1128.87-150.125h1.38L972.547 559.438h-1.387l157.71-709.563ZM1124.14-150.125h1.39L967.826 559.438h-1.394l157.708-709.563ZM1119.41-150.125h1.39L963.098 559.438h-1.387l157.699-709.563ZM1114.69-150.125h1.39L958.369 559.438h-1.387l157.708-709.563ZM1109.96-150.125h1.39L953.648 559.438h-1.394l157.706-709.563ZM1105.23-150.125h1.4L948.92 559.438h-1.387l157.697-709.563ZM1100.51-150.125h1.39L944.192 559.438h-1.387l157.705-709.563ZM1095.78-150.125h1.39l-157.7 709.563h-1.394l157.704-709.563ZM1091.05-150.125h1.4L934.742 559.438h-1.394l157.702-709.563ZM1086.33-150.125h1.39L930.014 559.438h-1.387l157.703-709.563ZM1081.6-150.125h1.39L925.285 559.438h-1.387L1081.6-150.125ZM1076.88-150.125h1.39L920.564 559.438h-1.394l157.71-709.563ZM1072.15-150.125h1.39L915.835 559.438h-1.387l157.702-709.563ZM1067.43-150.125h1.38L911.107 559.438h-1.387l157.71-709.563ZM1062.7-150.125h1.38L906.386 559.438h-1.394L1062.7-150.125ZM1057.97-150.125h1.39L901.658 559.438h-1.394l157.706-709.563ZM1053.25-150.125h1.38L896.929 559.438h-1.387l157.708-709.563ZM1048.52-150.125h1.39L892.208 559.438h-1.395l157.707-709.563ZM1043.79-150.125h1.4L887.479 559.438h-1.394l157.705-709.563Z" fill="#BDBDBD"/><path opacity=".6" fill-rule="evenodd" clip-rule="evenodd" d="M151.88 825.94h-1.255L412.44-352.656h1.256L151.88 825.94Zm4.267 0h-1.255L416.707-352.656h1.256L156.147 825.94Zm4.268 0h-1.255L420.975-352.656h1.255L160.415 825.94Zm4.267 0h-1.255L425.242-352.656h1.255L164.682 825.94Zm4.267 0h-1.255L429.51-352.656h1.254L168.949 825.94Zm4.268 0h-1.256L433.777-352.656h1.255L173.217 825.94Zm4.267 0h-1.255L438.044-352.656h1.255L177.484 825.94Zm4.267 0h-1.255L442.311-352.656h1.256L181.751 825.94Zm4.267 0h-1.254L446.579-352.656h1.255L186.018 825.94Zm4.268 0h-1.255L450.846-352.656h1.255L190.286 825.94Zm4.267 0h-1.255L455.113-352.656h1.255L194.553 825.94Zm4.267 0h-1.255L459.381-352.656h1.254L198.82 825.94Zm4.268 0h-1.256L463.648-352.656h1.255L203.088 825.94Zm4.267 0H206.1L467.915-352.656h1.255L207.355 825.94Zm4.267 0h-1.255L472.182-352.656h1.256L211.622 825.94Zm4.267 0h-1.254L476.45-352.656h1.255L215.889 825.94Zm4.268 0h-1.255L480.717-352.656h1.255L220.157 825.94Zm4.267 0h-1.255L484.984-352.656h1.255L224.424 825.94Zm4.268 0h-1.256L489.252-352.656h1.255L228.692 825.94Zm4.267 0h-1.256L493.519-352.656h1.255L232.959 825.94Zm4.267 0h-1.255L497.786-352.656h1.255L237.226 825.94Zm4.267 0h-1.255L502.053-352.656h1.256L241.493 825.94Zm4.267 0h-1.254L506.321-352.656h1.255L245.76 825.94Zm4.268 0h-1.255L510.588-352.656h1.255L250.028 825.94Zm4.267 0h-1.255L514.855-352.656h1.255L254.295 825.94Zm4.268 0h-1.256L519.123-352.656h1.255L258.563 825.94Zm4.267 0h-1.255L523.39-352.656h1.255L262.83 825.94Zm4.267 0h-1.255L527.657-352.656h1.256L267.097 825.94Zm4.267 0h-1.255L531.924-352.656h1.256L271.364 825.94Zm4.268 0h-1.255L536.192-352.656h1.255L275.632 825.94Zm4.267 0h-1.255L540.459-352.656h1.255L279.899 825.94Zm4.267 0h-1.254L544.727-352.656h1.254L284.166 825.94Zm4.268 0h-1.255L548.994-352.656h1.255L288.434 825.94Zm4.267 0h-1.255L553.261-352.656h1.255L292.701 825.94Zm4.268 0h-1.256L557.528-352.656h1.256L296.969 825.94Zm4.267 0h-1.256L561.795-352.656h1.256L301.236 825.94Zm4.267 0h-1.255L566.063-352.656h1.255L305.503 825.94Zm4.267 0h-1.255L570.33-352.656h1.255L309.77 825.94Zm4.267 0h-1.254L574.598-352.656h1.254L314.037 825.94Zm4.268 0h-1.255L578.865-352.656h1.255L318.305 825.94Zm4.267 0h-1.255L583.132-352.656h1.255L322.572 825.94Zm4.268 0h-1.256L587.399-352.656h1.256L326.84 825.94Zm4.267 0h-1.255L591.667-352.656h1.255L331.107 825.94Z" fill="#BEBEBE"/><g opacity=".6" fill="#BEBEBE"><path d="M775.952-794.539h-2.471L213.117 1728.02h2.47L775.952-794.539ZM784.346-794.539h-2.464L221.514 1728.02h2.469L784.346-794.539ZM792.749-794.539h-2.471L229.911 1728.02h2.47L792.749-794.539ZM801.143-794.539h-2.471L238.308 1728.02h2.469L801.143-794.539ZM809.539-794.539h-2.472L246.705 1728.02h2.47L809.539-794.539ZM817.94-794.539h-2.471L255.102 1728.02h2.469L817.94-794.539ZM826.334-794.539h-2.471L263.498 1728.02h2.47L826.334-794.539Z"/></g><g opacity=".6" fill="#BEBEBE"><path d="M834.013-794.539h-2.471L271.177 1728.02h2.469L834.013-794.539ZM842.407-794.539h-2.471L279.573 1728.02h2.47L842.407-794.539ZM850.803-794.539h-2.464L287.971 1728.02h2.469L850.803-794.539ZM859.204-794.539h-2.471L296.367 1728.02h2.47L859.204-794.539ZM867.6-794.539h-2.472L304.765 1728.02h2.469L867.6-794.539ZM875.994-794.539h-2.464L313.161 1728.02h2.47L875.994-794.539ZM884.395-794.539h-2.471L321.558 1728.02h2.469L884.395-794.539Z"/></g><path d="M222.746-12.745H170.44L-114.339 1269.23h52.306L222.746-12.745Z" fill="#E0E0E0"/><path d="M217.543-12.745h5.204L-62.033 1269.23h-5.203L217.543-12.745Z" fill="#E0E0E0"/><path d="M171.696-12.745h-1.256L-114.339 1269.23h1.255L171.696-12.745ZM175.964-12.745h-1.256L-110.071 1269.23h1.254L175.964-12.745ZM180.23-12.745h-1.254l-284.78 1281.975h1.255L180.23-12.745ZM184.497-12.745h-1.255L-101.537 1269.23h1.255L184.497-12.745ZM188.765-12.745h-1.254L-97.269 1269.23h1.255L188.765-12.745ZM193.032-12.745h-1.255L-93.003 1269.23h1.256L193.032-12.745ZM197.299-12.745h-1.255L-88.736 1269.23h1.256L197.3-12.745Z" fill="#F2F2F2"/><path d="M1733.97.001h-448.55L1000.64 1281.97h448.54L1733.97.001ZM1272.88.001h-25.45L962.655 1281.97h25.45L1272.88.001Z" fill="#D9D9D9"/><path d="M1794.21-7.08h-1.25l-284.78 1281.97h1.26L1794.21-7.08ZM1798.48-7.08h-1.25l-284.78 1281.97h1.25L1798.48-7.08ZM1802.75-7.08h-1.26l-284.77 1281.97h1.25L1802.75-7.08ZM1807.02-7.08h-1.26l-284.78 1281.97h1.25L1807.02-7.08ZM1811.28-7.08h-1.25l-284.78 1281.97h1.26L1811.28-7.08ZM1815.55-7.08h-1.26l-284.77 1281.97h1.25L1815.55-7.08ZM1819.82-7.08h-1.26l-284.77 1281.97h1.25L1819.82-7.08ZM1824.09-7.08h-1.26l-284.78 1281.97h1.25L1824.09-7.08ZM1828.35-7.08h-1.25l-284.79 1281.97h1.27L1828.35-7.08ZM1832.62-7.08h-1.26l-284.78 1281.97h1.26L1832.62-7.08ZM1836.89-7.08h-1.26l-284.78 1281.97h1.26L1836.89-7.08ZM1841.16-7.08h-1.26l-284.78 1281.97h1.25L1841.16-7.08ZM1845.42-7.08h-1.25l-284.79 1281.97h1.27L1845.42-7.08ZM1747.28-7.08h-1.26l-284.78 1281.97h1.25L1747.28-7.08ZM1751.54-7.08h-1.26l-284.77 1281.97h1.25L1751.54-7.08ZM1755.81-7.08h-1.25l-284.79 1281.97h1.26L1755.81-7.08ZM1760.07-7.08h-1.25l-284.78 1281.97h1.26L1760.07-7.08ZM1764.34-7.08h-1.25l-284.78 1281.97h1.25L1764.34-7.08ZM1768.61-7.08h-1.26l-284.77 1281.97h1.25L1768.61-7.08ZM1772.88-7.08h-1.25l-284.79 1281.97h1.26L1772.88-7.08ZM1777.14-7.08h-1.25l-284.78 1281.97h1.26L1777.14-7.08ZM1781.41-7.08h-1.25l-284.78 1281.97h1.25L1781.41-7.08ZM1785.68-7.08h-1.26l-284.77 1281.97h1.25L1785.68-7.08ZM1789.95-7.08h-1.26l-284.78 1281.97h1.26L1789.95-7.08Z" fill="#BDBDBD"/><path d="M1794.21-7.08h-1.25l-284.78 1281.97h1.26L1794.21-7.08ZM1798.48-7.08h-1.25l-284.78 1281.97h1.25L1798.48-7.08ZM1849.68-7.08h-1.25l-284.78 1281.97h1.26L1849.68-7.08ZM1853.96-7.08h-1.26l-284.78 1281.97h1.26L1853.96-7.08ZM1858.22-7.08h-1.25l-284.78 1281.97h1.25L1858.22-7.08ZM1862.49-7.08h-1.25l-284.79 1281.97h1.26L1862.49-7.08ZM1866.76-7.08h-1.26l-284.78 1281.97h1.26L1866.76-7.08ZM1871.03-7.08h-1.26l-284.78 1281.97h1.25L1871.03-7.08ZM1875.29-7.08h-1.25l-284.78 1281.97h1.25L1875.29-7.08ZM1879.56-7.08h-1.25l-284.79 1281.97h1.26L1879.56-7.08ZM1883.82-7.08h-1.25l-284.78 1281.97h1.26L1883.82-7.08Z" fill="#BDBDBD"/></g></svg>

<svg width="1600" height="1269" viewBox="0 0 1600 1269" fill="none" xmlns="http://www.w3.org/2000/svg">
<path d="M1600 0.0012207H0V1269H1600V0.0012207Z" fill="#D9D9D9"/>
<g opacity="0.5">
<path d="M1598.52 1273.96L918.396 1273.96L1202.03 0.00137731L1598.52 -0.000976562V1273.96Z" fill="#F2F2F2"/>
<path d="M1023 559.439H1024.38L866.677 1269H865.29L1023 559.439Z" fill="#BDBDBD"/>
<path d="M1018.27 559.439H1019.65L861.956 1269H860.562L1018.27 559.439Z" fill="#BDBDBD"/>
<path d="M1013.54 559.439H1014.93L857.228 1269H855.834L1013.54 559.439Z" fill="#BDBDBD"/>
<path d="M1008.82 559.439H1010.2L852.499 1269H851.112L1008.82 559.439Z" fill="#BDBDBD"/>
<path d="M1004.09 559.439H1005.48L847.771 1269H846.384L1004.09 559.439Z" fill="#BDBDBD"/>
<path d="M999.361 559.439H1000.76L843.049 1269H841.655L999.361 559.439Z" fill="#BDBDBD"/>
<path d="M994.633 559.439H996.027L838.321 1269H836.935L994.633 559.439Z" fill="#BDBDBD"/>
<path d="M989.912 559.439H991.299L833.593 1269H832.206L989.912 559.439Z" fill="#BDBDBD"/>
<path d="M985.183 559.439H986.57L828.872 1269H827.478L985.183 559.439Z" fill="#BDBDBD"/>
<path d="M980.455 559.439H981.849L824.143 1269H822.749L980.455 559.439Z" fill="#BDBDBD"/>
<path d="M975.734 559.439H977.121L819.415 1269H818.028L975.734 559.439Z" fill="#BDBDBD"/>
<path d="M971.006 559.439H972.392L814.687 1269H813.3L971.006 559.439Z" fill="#BDBDBD"/>
<path d="M966.277 559.439H967.671L809.965 1269H808.571L966.277 559.439Z" fill="#BDBDBD"/>
<path d="M961.549 559.439H962.943L805.237 1269H803.851L961.549 559.439Z" fill="#BDBDBD"/>
<path d="M956.828 559.439H958.215L800.509 1269H799.122L956.828 559.439Z" fill="#BDBDBD"/>
<path d="M952.099 559.439H953.494L795.788 1269H794.394L952.099 559.439Z" fill="#BDBDBD"/>
<path d="M947.37 559.439H948.765L791.059 1269H789.672L947.37 559.439Z" fill="#BDBDBD"/>
<path d="M942.649 559.439H944.036L786.33 1269H784.943L942.649 559.439Z" fill="#BDBDBD"/>
<path d="M937.921 559.439H939.307L781.609 1269H780.215L937.921 559.439Z" fill="#BDBDBD"/>
<path d="M933.193 559.439H934.587L776.882 1269H775.487L933.193 559.439Z" fill="#BDBDBD"/>
<path d="M928.471 559.439H929.858L772.152 1269H770.766L928.471 559.439Z" fill="#BDBDBD"/>
<path d="M923.743 559.439H925.13L767.424 1269H766.037L923.743 559.439Z" fill="#BDBDBD"/>
<path d="M919.014 559.439H920.409L762.703 1269H761.309L919.014 559.439Z" fill="#BDBDBD"/>
<path d="M914.286 559.439H915.68L757.975 1269H756.588L914.286 559.439Z" fill="#BDBDBD"/>
<path d="M909.565 559.439H910.952L753.246 1269H751.859L909.565 559.439Z" fill="#BDBDBD"/>
<path d="M904.837 559.439H906.224L748.525 1269H747.131L904.837 559.439Z" fill="#BDBDBD"/>
<path d="M900.108 559.439H901.502L743.797 1269H742.402L900.108 559.439Z" fill="#BDBDBD"/>
<path d="M895.388 559.439H896.774L739.068 1269H737.682L895.388 559.439Z" fill="#BDBDBD"/>
<path d="M890.659 559.439H892.046L734.344 1269H732.954L890.659 559.439Z" fill="#BDBDBD"/>
<path d="M885.93 559.439H887.325L729.617 1269H728.228L885.93 559.439Z" fill="#BDBDBD"/>
<path d="M1180.86 -150.125H1182.24L1024.54 559.438H1023.15L1180.86 -150.125Z" fill="#BDBDBD"/>
<path d="M1176.13 -150.125H1177.52L1019.82 559.438H1018.42L1176.13 -150.125Z" fill="#BDBDBD"/>
<path d="M1171.4 -150.125H1172.79L1015.09 559.438H1013.69L1171.4 -150.125Z" fill="#BDBDBD"/>
<path d="M1166.68 -150.125H1168.07L1010.36 559.438H1008.97L1166.68 -150.125Z" fill="#BDBDBD"/>
<path d="M1161.95 -150.125H1163.34L1005.63 559.438H1004.25L1161.95 -150.125Z" fill="#BDBDBD"/>
<path d="M1157.22 -150.125H1158.62L1000.91 559.438H999.517L1157.22 -150.125Z" fill="#BDBDBD"/>
<path d="M1152.49 -150.125H1153.89L996.182 559.438H994.795L1152.49 -150.125Z" fill="#BDBDBD"/>
<path d="M1147.77 -150.125H1149.16L991.453 559.438H990.066L1147.77 -150.125Z" fill="#BDBDBD"/>
<path d="M1143.04 -150.125H1144.43L986.732 559.438H985.338L1143.04 -150.125Z" fill="#BDBDBD"/>
<path d="M1138.32 -150.125H1139.71L982.004 559.438H980.609L1138.32 -150.125Z" fill="#BDBDBD"/>
<path d="M1133.59 -150.125H1134.98L977.275 559.438H975.889L1133.59 -150.125Z" fill="#BDBDBD"/>
<path d="M1128.87 -150.125H1130.25L972.547 559.438H971.16L1128.87 -150.125Z" fill="#BDBDBD"/>
<path d="M1124.14 -150.125H1125.53L967.826 559.438H966.432L1124.14 -150.125Z" fill="#BDBDBD"/>
<path d="M1119.41 -150.125H1120.8L963.098 559.438H961.711L1119.41 -150.125Z" fill="#BDBDBD"/>
<path d="M1114.69 -150.125H1116.08L958.369 559.438H956.982L1114.69 -150.125Z" fill="#BDBDBD"/>
<path d="M1109.96 -150.125H1111.35L953.648 559.438H952.254L1109.96 -150.125Z" fill="#BDBDBD"/>
<path d="M1105.23 -150.125H1106.63L948.92 559.438H947.533L1105.23 -150.125Z" fill="#BDBDBD"/>
<path d="M1100.51 -150.125H1101.9L944.192 559.438H942.805L1100.51 -150.125Z" fill="#BDBDBD"/>
<path d="M1095.78 -150.125H1097.17L939.47 559.438H938.076L1095.78 -150.125Z" fill="#BDBDBD"/>
<path d="M1091.05 -150.125H1092.45L934.742 559.438H933.348L1091.05 -150.125Z" fill="#BDBDBD"/>
<path d="M1086.33 -150.125H1087.72L930.014 559.438H928.627L1086.33 -150.125Z" fill="#BDBDBD"/>
<path d="M1081.6 -150.125H1082.99L925.285 559.438H923.898L1081.6 -150.125Z" fill="#BDBDBD"/>
<path d="M1076.88 -150.125H1078.27L920.564 559.438H919.17L1076.88 -150.125Z" fill="#BDBDBD"/>
<path d="M1072.15 -150.125H1073.54L915.835 559.438H914.448L1072.15 -150.125Z" fill="#BDBDBD"/>
<path d="M1067.43 -150.125H1068.81L911.107 559.438H909.72L1067.43 -150.125Z" fill="#BDBDBD"/>
<path d="M1062.7 -150.125H1064.08L906.386 559.438H904.992L1062.7 -150.125Z" fill="#BDBDBD"/>
<path d="M1057.97 -150.125H1059.36L901.658 559.438H900.264L1057.97 -150.125Z" fill="#BDBDBD"/>
<path d="M1053.25 -150.125H1054.63L896.929 559.438H895.542L1053.25 -150.125Z" fill="#BDBDBD"/>
<path d="M1048.52 -150.125H1049.91L892.208 559.438H890.813L1048.52 -150.125Z" fill="#BDBDBD"/>
<path d="M1043.79 -150.125H1045.19L887.479 559.438H886.085L1043.79 -150.125Z" fill="#BDBDBD"/>
<path opacity="0.6" fill-rule="evenodd" clip-rule="evenodd" d="M151.88 825.94H150.625L412.44 -352.656H413.696L151.88 825.94ZM156.147 825.94H154.892L416.707 -352.656H417.963L156.147 825.94ZM160.415 825.94H159.16L420.975 -352.656H422.23L160.415 825.94ZM164.682 825.94H163.427L425.242 -352.656H426.497L164.682 825.94ZM168.949 825.94H167.694L429.51 -352.656H430.764L168.949 825.94ZM173.217 825.94H171.961L433.777 -352.656H435.032L173.217 825.94ZM177.484 825.94H176.229L438.044 -352.656H439.299L177.484 825.94ZM181.751 825.94H180.496L442.311 -352.656H443.567L181.751 825.94ZM186.018 825.94H184.764L446.579 -352.656H447.834L186.018 825.94ZM190.286 825.94H189.031L450.846 -352.656H452.101L190.286 825.94ZM194.553 825.94H193.298L455.113 -352.656H456.368L194.553 825.94ZM198.82 825.94H197.565L459.381 -352.656H460.635L198.82 825.94ZM203.088 825.94H201.832L463.648 -352.656H464.903L203.088 825.94ZM207.355 825.94H206.1L467.915 -352.656H469.17L207.355 825.94ZM211.622 825.94H210.367L472.182 -352.656H473.438L211.622 825.94ZM215.889 825.94H214.635L476.45 -352.656H477.705L215.889 825.94ZM220.157 825.94H218.902L480.717 -352.656H481.972L220.157 825.94ZM224.424 825.94H223.169L484.984 -352.656H486.239L224.424 825.94ZM228.692 825.94H227.436L489.252 -352.656H490.507L228.692 825.94ZM232.959 825.94H231.703L493.519 -352.656H494.774L232.959 825.94ZM237.226 825.94H235.971L497.786 -352.656H499.041L237.226 825.94ZM241.493 825.94H240.238L502.053 -352.656H503.309L241.493 825.94ZM245.76 825.94H244.506L506.321 -352.656H507.576L245.76 825.94ZM250.028 825.94H248.773L510.588 -352.656H511.843L250.028 825.94ZM254.295 825.94H253.04L514.855 -352.656H516.11L254.295 825.94ZM258.563 825.94H257.307L519.123 -352.656H520.378L258.563 825.94ZM262.83 825.94H261.575L523.39 -352.656H524.645L262.83 825.94ZM267.097 825.94H265.842L527.657 -352.656H528.913L267.097 825.94ZM271.364 825.94H270.109L531.924 -352.656H533.18L271.364 825.94ZM275.632 825.94H274.377L536.192 -352.656H537.447L275.632 825.94ZM279.899 825.94H278.644L540.459 -352.656H541.714L279.899 825.94ZM284.166 825.94H282.912L544.727 -352.656H545.981L284.166 825.94ZM288.434 825.94H287.179L548.994 -352.656H550.249L288.434 825.94ZM292.701 825.94H291.446L553.261 -352.656H554.516L292.701 825.94ZM296.969 825.94H295.713L557.528 -352.656H558.784L296.969 825.94ZM301.236 825.94H299.98L561.795 -352.656H563.051L301.236 825.94ZM305.503 825.94H304.248L566.063 -352.656H567.318L305.503 825.94ZM309.77 825.94H308.515L570.33 -352.656H571.585L309.77 825.94ZM314.037 825.94H312.783L574.598 -352.656H575.852L314.037 825.94ZM318.305 825.94H317.05L578.865 -352.656H580.12L318.305 825.94ZM322.572 825.94H321.317L583.132 -352.656H584.387L322.572 825.94ZM326.84 825.94H325.584L587.399 -352.656H588.655L326.84 825.94ZM331.107 825.94H329.852L591.667 -352.656H592.922L331.107 825.94Z" fill="#BEBEBE"/>
<g opacity="0.6">
<path d="M775.952 -794.539H773.481L213.117 1728.02H215.587L775.952 -794.539Z" fill="#BEBEBE"/>
<path d="M784.346 -794.539H781.882L221.514 1728.02H223.983L784.346 -794.539Z" fill="#BEBEBE"/>
<path d="M792.749 -794.539H790.278L229.911 1728.02H232.381L792.749 -794.539Z" fill="#BEBEBE"/>
<path d="M801.143 -794.539H798.672L238.308 1728.02H240.777L801.143 -794.539Z" fill="#BEBEBE"/>
<path d="M809.539 -794.539H807.067L246.705 1728.02H249.175L809.539 -794.539Z" fill="#BEBEBE"/>
<path d="M817.94 -794.539H815.469L255.102 1728.02H257.571L817.94 -794.539Z" fill="#BEBEBE"/>
<path d="M826.334 -794.539H823.863L263.498 1728.02H265.968L826.334 -794.539Z" fill="#BEBEBE"/>
</g>
<g opacity="0.6">
<path d="M834.013 -794.539H831.542L271.177 1728.02H273.646L834.013 -794.539Z" fill="#BEBEBE"/>
<path d="M842.407 -794.539H839.936L279.573 1728.02H282.043L842.407 -794.539Z" fill="#BEBEBE"/>
<path d="M850.803 -794.539H848.339L287.971 1728.02H290.44L850.803 -794.539Z" fill="#BEBEBE"/>
<path d="M859.204 -794.539H856.733L296.367 1728.02H298.837L859.204 -794.539Z" fill="#BEBEBE"/>
<path d="M867.6 -794.539H865.128L304.765 1728.02H307.234L867.6 -794.539Z" fill="#BEBEBE"/>
<path d="M875.994 -794.539H873.53L313.161 1728.02H315.631L875.994 -794.539Z" fill="#BEBEBE"/>
<path d="M884.395 -794.539H881.924L321.558 1728.02H324.027L884.395 -794.539Z" fill="#BEBEBE"/>
</g>
<path d="M222.746 -12.745H170.44L-114.339 1269.23H-62.0331L222.746 -12.745Z" fill="#E0E0E0"/>
<path d="M217.543 -12.745H222.747L-62.0328 1269.23H-67.2363L217.543 -12.745Z" fill="#E0E0E0"/>
<path d="M171.696 -12.745H170.44L-114.339 1269.23H-113.084L171.696 -12.745Z" fill="#F2F2F2"/>
<path d="M175.964 -12.745H174.708L-110.071 1269.23H-108.817L175.964 -12.745Z" fill="#F2F2F2"/>
<path d="M180.23 -12.745H178.976L-105.804 1269.23H-104.549L180.23 -12.745Z" fill="#F2F2F2"/>
<path d="M184.497 -12.745H183.242L-101.537 1269.23H-100.282L184.497 -12.745Z" fill="#F2F2F2"/>
<path d="M188.765 -12.745H187.511L-97.2695 1269.23H-96.014L188.765 -12.745Z" fill="#F2F2F2"/>
<path d="M193.032 -12.745H191.777L-93.0029 1269.23H-91.7474L193.032 -12.745Z" fill="#F2F2F2"/>
<path d="M197.299 -12.745H196.044L-88.7354 1269.23H-87.4798L197.299 -12.745Z" fill="#F2F2F2"/>
<path d="M1733.97 0.0012207H1285.42L1000.64 1281.97H1449.18L1733.97 0.0012207Z" fill="#D9D9D9"/>
<path d="M1272.88 0.0012207H1247.43L962.655 1281.97H988.105L1272.88 0.0012207Z" fill="#D9D9D9"/>
<path d="M1794.21 -7.08081H1792.96L1508.18 1274.89H1509.44L1794.21 -7.08081Z" fill="#BDBDBD"/>
<path d="M1798.48 -7.08081H1797.23L1512.45 1274.89H1513.7L1798.48 -7.08081Z" fill="#BDBDBD"/>
<path d="M1802.75 -7.08081H1801.49L1516.72 1274.89H1517.97L1802.75 -7.08081Z" fill="#BDBDBD"/>
<path d="M1807.02 -7.08081H1805.76L1520.98 1274.89H1522.23L1807.02 -7.08081Z" fill="#BDBDBD"/>
<path d="M1811.28 -7.08081H1810.03L1525.25 1274.89H1526.51L1811.28 -7.08081Z" fill="#BDBDBD"/>
<path d="M1815.55 -7.08081H1814.29L1529.52 1274.89H1530.77L1815.55 -7.08081Z" fill="#BDBDBD"/>
<path d="M1819.82 -7.08081H1818.56L1533.79 1274.89H1535.04L1819.82 -7.08081Z" fill="#BDBDBD"/>
<path d="M1824.09 -7.08081H1822.83L1538.05 1274.89H1539.3L1824.09 -7.08081Z" fill="#BDBDBD"/>
<path d="M1828.35 -7.08081H1827.1L1542.31 1274.89H1543.58L1828.35 -7.08081Z" fill="#BDBDBD"/>
<path d="M1832.62 -7.08081H1831.36L1546.58 1274.89H1547.84L1832.62 -7.08081Z" fill="#BDBDBD"/>
<path d="M1836.89 -7.08081H1835.63L1550.85 1274.89H1552.11L1836.89 -7.08081Z" fill="#BDBDBD"/>
<path d="M1841.16 -7.08081H1839.9L1555.12 1274.89H1556.37L1841.16 -7.08081Z" fill="#BDBDBD"/>
<path d="M1845.42 -7.08081H1844.17L1559.38 1274.89H1560.65L1845.42 -7.08081Z" fill="#BDBDBD"/>
<path d="M1747.28 -7.08081H1746.02L1461.24 1274.89H1462.49L1747.28 -7.08081Z" fill="#BDBDBD"/>
<path d="M1751.54 -7.08081H1750.28L1465.51 1274.89H1466.76L1751.54 -7.08081Z" fill="#BDBDBD"/>
<path d="M1755.81 -7.08081H1754.56L1469.77 1274.89H1471.03L1755.81 -7.08081Z" fill="#BDBDBD"/>
<path d="M1760.07 -7.08081H1758.82L1474.04 1274.89H1475.3L1760.07 -7.08081Z" fill="#BDBDBD"/>
<path d="M1764.34 -7.08081H1763.09L1478.31 1274.89H1479.56L1764.34 -7.08081Z" fill="#BDBDBD"/>
<path d="M1768.61 -7.08081H1767.35L1482.58 1274.89H1483.83L1768.61 -7.08081Z" fill="#BDBDBD"/>
<path d="M1772.88 -7.08081H1771.63L1486.84 1274.89H1488.1L1772.88 -7.08081Z" fill="#BDBDBD"/>
<path d="M1777.14 -7.08081H1775.89L1491.11 1274.89H1492.37L1777.14 -7.08081Z" fill="#BDBDBD"/>
<path d="M1781.41 -7.08081H1780.16L1495.38 1274.89H1496.63L1781.41 -7.08081Z" fill="#BDBDBD"/>
<path d="M1785.68 -7.08081H1784.42L1499.65 1274.89H1500.9L1785.68 -7.08081Z" fill="#BDBDBD"/>
<path d="M1789.95 -7.08081H1788.69L1503.91 1274.89H1505.17L1789.95 -7.08081Z" fill="#BDBDBD"/>
<path d="M1794.21 -7.08081H1792.96L1508.18 1274.89H1509.44L1794.21 -7.08081Z" fill="#BDBDBD"/>
<path d="M1798.48 -7.08081H1797.23L1512.45 1274.89H1513.7L1798.48 -7.08081Z" fill="#BDBDBD"/>
<path d="M1849.68 -7.08081H1848.43L1563.65 1274.89H1564.91L1849.68 -7.08081Z" fill="#BDBDBD"/>
<path d="M1853.96 -7.08081H1852.7L1567.92 1274.89H1569.18L1853.96 -7.08081Z" fill="#BDBDBD"/>
<path d="M1858.22 -7.08081H1856.97L1572.19 1274.89H1573.44L1858.22 -7.08081Z" fill="#BDBDBD"/>
<path d="M1862.49 -7.08081H1861.24L1576.45 1274.89H1577.71L1862.49 -7.08081Z" fill="#BDBDBD"/>
<path d="M1866.76 -7.08081H1865.5L1580.72 1274.89H1581.98L1866.76 -7.08081Z" fill="#BDBDBD"/>
<path d="M1871.03 -7.08081H1869.77L1584.99 1274.89H1586.24L1871.03 -7.08081Z" fill="#BDBDBD"/>
<path d="M1875.29 -7.08081H1874.04L1589.26 1274.89H1590.51L1875.29 -7.08081Z" fill="#BDBDBD"/>
<path d="M1879.56 -7.08081H1878.31L1593.52 1274.89H1594.78L1879.56 -7.08081Z" fill="#BDBDBD"/>
<path d="M1883.82 -7.08081H1882.57L1597.79 1274.89H1599.05L1883.82 -7.08081Z" fill="#BDBDBD"/>
</g>
</svg>
